X: 849
T: Yellow Joak
M:4/4
L:1/8
B: Walsh "Third Book of the most Celebrated jiggs, Lancashire hornpipes, ..."
K:F
f2c A>Bc | F2cf3 | afd gec | fcB A2c | A>GF C>FE | (F3F3) ||
c2c acB | aBAG3 | c2c acB | gBAG2f/g/ | afd gec | fcB A2B/c/ | dBG cAF | BGFE2c | A>GF C>FE | (F3F3) ||

%%sep 1 1 500
%%sep 1 1 500
